dist/svgs/crypto-icons/icons/scot.svg

<?xml version="1.0" encoding="UTF-8" standalone="yes"?>
<svg xmlns="http://www.w3.org/2000/svg" xmlns:xlink="http://www.w3.org/1999/xlink" width="512px" height="512px" viewBox="0 0 384 384" version="1.1">
  <g id="surface1">
    <path style=" stroke:none;fill-rule:nonzero;fill:rgb(0%,0%,0%);fill-opacity:1;" d="M 303.398438 157.59375 L 199.058594 157.59375 L 193.445312 154.789062 C 179.570312 147.796875 170.484375 143.59375 170.484375 134.265625 C 170.484375 124.464844 180.527344 119.332031 193.445312 119.332031 C 208.757812 119.332031 223.109375 128.195312 237.464844 142.203125 L 276.699219 103.464844 C 256.125 76.871094 225.984375 62.394531 192.96875 62.394531 C 144.164062 62.394531 110.671875 95.058594 110.671875 133.792969 C 110.671875 142.238281 112.296875 150.117188 115.28125 157.59375 L 80.222656 157.59375 L 80.222656 185.941406 L 135.9375 185.941406 C 141.457031 190.886719 147.917969 195.601562 155.238281 200.117188 L 80.222656 200.117188 L 80.222656 228.464844 L 208.003906 228.464844 C 216.703125 234.355469 221.675781 240.359375 221.675781 247.664062 C 221.675781 258.867188 209.234375 267.730469 193.445312 267.730469 C 176.703125 267.730469 155.167969 255.597656 140.332031 238.804688 L 101.105469 280.804688 C 123.113281 308.789062 153.257812 323.265625 190.09375 323.265625 C 245.597656 323.265625 281.480469 290.132812 281.480469 245.800781 C 281.480469 239.558594 280.601562 233.894531 279.332031 228.464844 L 303.402344 228.464844 L 303.402344 200.117188 L 264.910156 200.117188 C 260.558594 195.09375 255.152344 190.445312 249.160156 185.941406 L 303.398438 185.941406 Z M 303.398438 157.59375 "/>
    <path style=" stroke:none;fill-rule:nonzero;fill:rgb(0%,0%,0%);fill-opacity:1;" d="M 191.808594 0 C 86.046875 0 0 86.046875 0 191.808594 C 0 297.574219 86.046875 383.621094 191.8125 383.621094 C 297.578125 383.621094 383.625 297.574219 383.625 191.808594 C 383.625 86.046875 297.578125 0 191.808594 0 Z M 191.808594 345.019531 C 107.332031 345.019531 38.601562 276.296875 38.601562 191.8125 C 38.601562 107.332031 107.332031 38.605469 191.808594 38.605469 C 276.289062 38.605469 345.015625 107.332031 345.015625 191.8125 C 345.019531 276.296875 276.289062 345.019531 191.808594 345.019531 Z M 191.808594 345.019531 "/>
  </g>
</svg>

<svg xmlns="http://www.w3.org/2000/svg" viewBox="0 0 384 384"><path d="M303.398 157.594h-104.34l-5.613-2.805c-13.875-6.992-22.96-11.195-22.96-20.523 0-9.801 10.042-14.934 22.96-14.934 15.313 0 29.664 8.863 44.02 22.871l39.234-38.738c-20.574-26.594-50.715-41.07-83.73-41.07-48.805 0-82.297 32.664-82.297 71.398 0 8.445 1.625 16.324 4.61 23.8h-35.06v28.348h55.716c5.519 4.946 11.98 9.66 19.3 14.176H80.223v28.348h127.78c8.7 5.89 13.673 11.894 13.673 19.2 0 11.202-12.442 20.065-28.23 20.065-16.743 0-38.278-12.132-53.114-28.925l-39.227 42c22.008 27.984 52.153 42.46 88.989 42.46 55.504 0 91.386-33.132 91.386-77.464 0-6.242-.878-11.906-2.148-17.336h24.07v-28.348H264.91c-4.351-5.023-9.758-9.672-15.75-14.176h54.238zm0 0"/><path d="M191.809 0C86.047 0 0 86.047 0 191.809 0 297.574 86.047 383.62 191.813 383.62c105.765 0 191.812-86.047 191.812-191.812C383.625 86.047 297.578 0 191.809 0zm0 345.02c-84.477 0-153.207-68.723-153.207-153.207 0-84.481 68.73-153.208 153.207-153.208 84.48 0 153.207 68.727 153.207 153.208.004 84.484-68.727 153.207-153.207 153.207zm0 0"/></svg>
